icon/pk/clap.svg

<svg viewBox="0 0 48 48" fill="none" xmlns="http://www.w3.org/2000/svg" height="1em" width="1em">
  <g clip-path="url(#clip0_12383_13540)">
    <path d="M17.1182 26.0132L9.25293 12.3902C8.80961 11.6224 7.82778 11.3593 7.05994 11.8026C6.38243 12.1938 6.08553 13.0164 6.35702 13.7501L11.8773 28.6684C11.9585 28.8878 12.0005 29.1197 12.0016 29.3535L12.0586 42.0265C12.0636 43.1276 12.9575 44.0175 14.0586 44.0175L19.0159 44.0175C20.2925 44.0175 21.2424 42.8377 20.9698 41.5906L18 28L17.1182 26.0132Z" stroke="black" stroke-width="4" stroke-linecap="round" stroke-linejoin="round"/>
    <path d="M12 29L18 28" stroke="black" stroke-width="4" stroke-linecap="round" stroke-linejoin="round"/>
    <path d="M30.5636 25.7289L38.2548 12.4074C38.7036 11.6301 39.6975 11.3637 40.4748 11.8125C41.1469 12.2006 41.4508 13.0097 41.2005 13.7443L36.0954 28.7215C36.0325 28.9062 35.9969 29.099 35.9898 29.294L35.5236 42.0923C35.4844 43.1678 34.6012 44.0195 33.5249 44.0195L28.5607 44.0195C27.2598 44.0195 26.3051 42.7971 26.6203 41.5349L30.0005 28L30.3348 26.3351C30.3776 26.122 30.4549 25.9172 30.5636 25.7289Z" stroke="black" stroke-width="4" stroke-linecap="round" stroke-linejoin="round"/>
    <path d="M30 28L36 29" stroke="black" stroke-width="4" stroke-linecap="round" stroke-linejoin="round"/>
    <path d="M15 7L18.5 11" stroke="black" stroke-width="4" stroke-linecap="round" stroke-linejoin="round"/>
    <path d="M23 4L24 10" stroke="black" stroke-width="4" stroke-linecap="round" stroke-linejoin="round"/>
    <path d="M33 6L30 10" stroke="black" stroke-width="4" stroke-linecap="round" stroke-linejoin="round"/>
  </g>
  <defs>
    <clipPath id="clip0_12383_13540">
      <rect width="48" height="48" fill="white"/>
    </clipPath>
  </defs>
</svg>

<svg width="48" height="48" fill="none" xmlns="http://www.w3.org/2000/svg"><g clip-path="url(#a)" stroke="#000" stroke-width="4" stroke-linecap="round" stroke-linejoin="round"><path d="M17.118 26.013 9.253 12.39a1.605 1.605 0 0 0-2.896 1.36l5.52 14.918c.082.22.123.452.125.686l.057 12.672a2 2 0 0 0 2 1.991h4.957a2 2 0 0 0 1.954-2.426L18 28l-.882-1.987ZM12 29l6-1M30.564 25.729l7.69-13.322a1.625 1.625 0 0 1 2.947 1.337l-5.106 14.977a2.002 2.002 0 0 0-.105.573l-.466 12.798a2 2 0 0 1-2 1.928h-4.963a2 2 0 0 1-1.94-2.485L30 28l.334-1.665a2 2 0 0 1 .229-.606ZM30 28l6 1M15 7l3.5 4M23 4l1 6M33 6l-3 4"/></g><defs><clipPath id="a"><path fill="#fff" d="M0 0h48v48H0z"/></clipPath></defs></svg>
